X:22
T:Blue And Buff. WM.022
M:2/4
L:1/8
Q:1/2=90
S:Wm.Mittell’s MS, New Romney,Kent,1799
R:.Reel
O:England
A:Kent
Z:vmp.Chris Partington
K:D
Gddd|fddd|gfed|f/g/a f/g/a|Gddd|fddd|edef|d2d2:|!
|:afga|gefg|fdef|ecA2|afga|gefg|fdef|a2a2:|

